X:1
T:Kirsty MacFarlane
T:Kirsty MacFarlane
T:Carl Volti
C:Carl Volti
L:1/8
Q:1/8=232
M:4/4
K:D
V:1 treble 
V:1
|: A2 AB AB de | fe df ed Bd | A2 AB AB de | fe df e2 a2 | A2 AB AB de | fe df ed Bd | %6
 A2 AB AB de | fd ec de fg | a2 ab af de | fd ef ed BA | a2 ab af de | fd ef e2 fg | a2 ab af de | %13
 fd ef ed BA | A2 AB AB de | fd ec d4 :| %16

